assets/1. F-P/Notebook with decorative cover/Color/Notebook.With.Decorative.Cover-color.svg

<svg width="100%" height="100%" viewBox="0 0 32 32" fill="none" xmlns="http://www.w3.org/2000/svg">
<path d="M7.75 2.00488H24.75C25.8546 2.00488 26.75 2.90031 26.75 4.00488V26.0049H7.75V2.00488Z" fill="url(#paint0_linear_18_20675)"/>
<path d="M7.75 2.00488H24.75C25.8546 2.00488 26.75 2.90031 26.75 4.00488V26.0049H7.75V2.00488Z" fill="url(#paint1_linear_18_20675)"/>
<path d="M5.25 26.5049H26.75V29.0049H26.25L25.75 29.5049H5.25V26.5049Z" fill="url(#paint2_linear_18_20675)"/>
<path d="M5.25 26.5049H26.75V29.0049H26.25L25.75 29.5049H5.25V26.5049Z" fill="url(#paint3_linear_18_20675)"/>
<path d="M6.25 2.00488C5.42157 2.00488 4.75 2.67646 4.75 3.50488V28.0049H5.75C5.75 27.4526 6.19772 27.0049 6.75 27.0049H7.75V2.00488H6.25Z" fill="url(#paint4_linear_18_20675)"/>
<path d="M6.25 2.00488C5.42157 2.00488 4.75 2.67646 4.75 3.50488V28.0049H5.75C5.75 27.4526 6.19772 27.0049 6.75 27.0049H7.75V2.00488H6.25Z" fill="url(#paint5_radial_18_20675)"/>
<path d="M6.25 26.0049C5.42157 26.0049 4.75 26.6765 4.75 27.5049V28.5049C4.75 29.3333 5.42157 30.0049 6.25 30.0049H25.6577C26.3108 30.0049 26.75 29.6704 26.75 29.0049H6.75C6.19772 29.0049 5.75 28.5572 5.75 28.0049C5.75 27.4526 6.19772 27.0049 6.75 27.0049H26.75V26.0049H6.25Z" fill="url(#paint6_linear_18_20675)"/>
<rect x="9.45227" y="3.63086" width="2.57504" height="1.27171" rx="0.635854" transform="rotate(45 9.45227 3.63086)" fill="#CEC8D4"/>
<rect x="9.45227" y="12.6448" width="2.57504" height="1.27171" rx="0.635854" transform="rotate(45 9.45227 12.6448)" fill="#CD62AB"/>
<rect x="9.45227" y="21.6455" width="2.57504" height="1.27171" rx="0.635854" transform="rotate(45 9.45227 21.6455)" fill="#3E8FD4"/>
<rect x="20.3801" y="3.63086" width="2.57504" height="1.27171" rx="0.635854" transform="rotate(45 20.3801 3.63086)" fill="#CBC5D1"/>
<rect x="20.3801" y="12.6448" width="2.57504" height="1.27171" rx="0.635854" transform="rotate(45 20.3801 12.6448)" fill="#CB60A9"/>
<rect x="20.3801" y="21.6455" width="2.57504" height="1.27171" rx="0.635854" transform="rotate(45 20.3801 21.6455)" fill="#3C8DD1"/>
<rect width="2.57504" height="1.27171" rx="0.635854" transform="matrix(-0.707107 0.707107 0.707107 0.707107 13.6159 3.63086)" fill="#CE62AB"/>
<rect width="2.57504" height="1.27171" rx="0.635854" transform="matrix(-0.707107 0.707107 0.707107 0.707107 13.6159 12.6448)" fill="#418FD3"/>
<rect width="2.57504" height="1.27171" rx="0.635854" transform="matrix(-0.707107 0.707107 0.707107 0.707107 13.6159 21.6455)" fill="#CDC7D3"/>
<rect width="2.57504" height="1.27171" rx="0.635854" transform="matrix(-0.707107 0.707107 0.707107 0.707107 17.4587 8.24414)" fill="#CC61AA"/>
<rect x="24.1262" y="8.24414" width="2.57504" height="1.27171" rx="0.635854" transform="rotate(45 24.1262 8.24414)" fill="#CAC5D1"/>
<rect width="2.57504" height="1.27171" rx="0.635854" transform="matrix(-1 -8.74228e-08 -8.74228e-08 1 22.1284 8.96826)" fill="#428DD1"/>
<rect width="2.57504" height="1.27171" rx="0.635854" transform="matrix(-1 -8.74228e-08 -8.74228e-08 1 14.4426 8.96826)" fill="#CDC7D3"/>
<rect width="2.57504" height="1.27171" rx="0.635854" transform="matrix(-0.707107 0.707107 0.707107 0.707107 17.4587 17.2444)" fill="#3F8DD2"/>
<rect x="24.1262" y="17.2444" width="2.57504" height="1.27171" rx="0.635854" transform="rotate(45 24.1262 17.2444)" fill="#CA5FA8"/>
<rect width="2.57504" height="1.27171" rx="0.635854" transform="matrix(-4.37114e-08 -1 -1 4.37114e-08 10.2706 10.8916)" fill="#438FD4"/>
<rect width="2.57504" height="1.27171" rx="0.635854" transform="matrix(-1 -8.74228e-08 -8.74228e-08 1 18.2855 4.35522)" fill="#448ED2"/>
<rect width="2.57504" height="1.27171" rx="0.635854" transform="matrix(-1 -8.74228e-08 -8.74228e-08 1 22.1284 17.9685)" fill="#CBC5D1"/>
<rect width="2.57504" height="1.27171" rx="0.635854" transform="matrix(-1 -8.74228e-08 -8.74228e-08 1 18.2855 13.3691)" fill="#CFCAD6"/>
<rect width="2.57504" height="1.27171" rx="0.635854" transform="matrix(-1 -8.74228e-08 -8.74228e-08 1 18.2855 22.3696)" fill="#CC60A9"/>
<rect width="2.57504" height="1.27171" rx="0.635854" transform="matrix(-1 -8.74228e-08 -8.74228e-08 1 14.4426 17.9685)" fill="#CD61AA"/>
<rect width="2.57504" height="1.27171" rx="0.635854" transform="matrix(-4.37114e-08 -1 -1 4.37114e-08 25.2228 6.27856)" fill="#CA61A9"/>
<rect width="2.57504" height="1.27171" rx="0.635854" transform="matrix(-4.37114e-08 -1 -1 4.37114e-08 25.2228 15.2925)" fill="#418DD1"/>
<rect width="2.57504" height="1.27171" rx="0.635854" transform="matrix(-4.37114e-08 -1 -1 4.37114e-08 25.2228 24.293)" fill="#CAC5D1"/>
<rect width="2.57504" height="1.27171" rx="0.635854" transform="matrix(-4.37114e-08 -1 -1 4.37114e-08 10.2706 19.8918)" fill="#CEC8D4"/>
<defs>
<linearGradient id="paint0_linear_18_20675" x1="17.25" y1="2.00488" x2="17.25" y2="26.0049" gradientUnits="userSpaceOnUse">
<stop stop-color="#5D4573"/>
<stop offset="1" stop-color="#4B3E59"/>
</linearGradient>
<linearGradient id="paint1_linear_18_20675" x1="28.44" y1="5.38726" x2="25.7303" y2="5.48404" gradientUnits="userSpaceOnUse">
<stop offset="0.408703" stop-color="#806E91"/>
<stop offset="1" stop-color="#806E91" stop-opacity="0"/>
</linearGradient>
<linearGradient id="paint2_linear_18_20675" x1="6.4715" y1="28.4204" x2="26.569" y2="28.4204" gradientUnits="userSpaceOnUse">
<stop stop-color="#D6C0EA"/>
<stop offset="1" stop-color="#DCCCED"/>
</linearGradient>
<linearGradient id="paint3_linear_18_20675" x1="16" y1="26.7429" x2="16" y2="28.1623" gradientUnits="userSpaceOnUse">
<stop stop-color="#9F8CB4"/>
<stop offset="1" stop-color="#9F8CB4" stop-opacity="0"/>
</linearGradient>
<linearGradient id="paint4_linear_18_20675" x1="4.95532" y1="16.7425" x2="7.75" y2="16.7425" gradientUnits="userSpaceOnUse">
<stop stop-color="#4E4459"/>
<stop offset="1" stop-color="#453C4E"/>
</linearGradient>
<radialGradient id="paint5_radial_18_20675" cx="0" cy="0" r="1" gradientUnits="userSpaceOnUse" gradientTransform="translate(5.14887 26.6784) rotate(-90) scale(6.6454 1.17096)">
<stop stop-color="#51475C"/>
<stop offset="1" stop-color="#51475C" stop-opacity="0"/>
</radialGradient>
<linearGradient id="paint6_linear_18_20675" x1="6.18117" y1="28.9688" x2="26.75" y2="28.9365" gradientUnits="userSpaceOnUse">
<stop stop-color="#512F71"/>
<stop offset="1" stop-color="#4F2E6D"/>
</linearGradient>
</defs>
</svg>

<svg width="100%" height="100%" viewBox="0 0 32 32" xmlns="http://www.w3.org/2000/svg"><path fill="url(#a)" d="M7.75 2.005h17a2 2 0 0 1 2 2v22h-19z"/><path fill="url(#b)" d="M7.75 2.005h17a2 2 0 0 1 2 2v22h-19z"/><path fill="url(#c)" d="M5.25 26.505h21.5v2.5h-.5l-.5.5H5.25z"/><path fill="url(#d)" d="M5.25 26.505h21.5v2.5h-.5l-.5.5H5.25z"/><path fill="url(#e)" d="M6.25 2.005a1.5 1.5 0 0 0-1.5 1.5v24.5h1a1 1 0 0 1 1-1h1v-25z"/><path fill="url(#f)" d="M6.25 2.005a1.5 1.5 0 0 0-1.5 1.5v24.5h1a1 1 0 0 1 1-1h1v-25z"/><path fill="url(#g)" d="M6.25 26.005a1.5 1.5 0 0 0-1.5 1.5v1a1.5 1.5 0 0 0 1.5 1.5h19.408c.653 0 1.092-.335 1.092-1h-20a1 1 0 1 1 0-2h20v-1z"/><rect width="2.575" height="1.272" x="9.452" y="3.631" fill="#CEC8D4" rx=".636" transform="rotate(45 9.452 3.63)"/><rect width="2.575" height="1.272" x="9.452" y="12.645" fill="#CD62AB" rx=".636" transform="rotate(45 9.452 12.645)"/><rect width="2.575" height="1.272" x="9.452" y="21.645" fill="#3E8FD4" rx=".636" transform="rotate(45 9.452 21.645)"/><rect width="2.575" height="1.272" x="20.38" y="3.631" fill="#CBC5D1" rx=".636" transform="rotate(45 20.38 3.63)"/><rect width="2.575" height="1.272" x="20.38" y="12.645" fill="#CB60A9" rx=".636" transform="rotate(45 20.38 12.645)"/><rect width="2.575" height="1.272" x="20.38" y="21.645" fill="#3C8DD1" rx=".636" transform="rotate(45 20.38 21.645)"/><rect width="2.575" height="1.272" fill="#CE62AB" rx=".636" transform="scale(-1 1)rotate(45 -11.19 -14.62)"/><rect width="2.575" height="1.272" fill="#418FD3" rx=".636" transform="scale(-1 1)rotate(45 -22.072 -10.113)"/><rect width="2.575" height="1.272" fill="#CDC7D3" rx=".636" transform="scale(-1 1)rotate(45 -32.936 -5.613)"/><rect width="2.575" height="1.272" fill="#CC61AA" rx=".636" transform="scale(-1 1)rotate(45 -18.68 -16.952)"/><rect width="2.575" height="1.272" x="24.126" y="8.244" fill="#CAC5D1" rx=".636" transform="rotate(45 24.126 8.244)"/><rect width="2.575" height="1.272" fill="#428DD1" rx=".636" transform="matrix(-1 0 0 1 22.128 8.968)"/><rect width="2.575" height="1.272" fill="#CDC7D3" rx=".636" transform="matrix(-1 0 0 1 14.443 8.968)"/><rect width="2.575" height="1.272" fill="#3F8DD2" rx=".636" transform="scale(-1 1)rotate(45 -29.545 -12.452)"/><rect width="2.575" height="1.272" x="24.126" y="17.244" fill="#CA5FA8" rx=".636" transform="rotate(45 24.126 17.244)"/><rect width="2.575" height="1.272" fill="#438FD4" rx=".636" transform="matrix(0 -1 -1 0 10.27 10.892)"/><rect width="2.575" height="1.272" fill="#448ED2" rx=".636" transform="matrix(-1 0 0 1 18.285 4.355)"/><rect width="2.575" height="1.272" fill="#CBC5D1" rx=".636" transform="matrix(-1 0 0 1 22.128 17.968)"/><rect width="2.575" height="1.272" fill="#CFCAD6" rx=".636" transform="matrix(-1 0 0 1 18.285 13.37)"/><rect width="2.575" height="1.272" fill="#CC60A9" rx=".636" transform="matrix(-1 0 0 1 18.285 22.37)"/><rect width="2.575" height="1.272" fill="#CD61AA" rx=".636" transform="matrix(-1 0 0 1 14.443 17.968)"/><rect width="2.575" height="1.272" fill="#CA61A9" rx=".636" transform="matrix(0 -1 -1 0 25.223 6.279)"/><rect width="2.575" height="1.272" fill="#418DD1" rx=".636" transform="matrix(0 -1 -1 0 25.223 15.293)"/><rect width="2.575" height="1.272" fill="#CAC5D1" rx=".636" transform="matrix(0 -1 -1 0 25.223 24.293)"/><rect width="2.575" height="1.272" fill="#CEC8D4" rx=".636" transform="matrix(0 -1 -1 0 10.27 19.892)"/><defs><linearGradient id="a" x1="17.25" x2="17.25" y1="2.005" y2="26.005" gradientUnits="userSpaceOnUse"><stop stop-color="#5D4573"/><stop offset="1" stop-color="#4B3E59"/></linearGradient><linearGradient id="b" x1="28.44" x2="25.73" y1="5.387" y2="5.484" gradientUnits="userSpaceOnUse"><stop offset=".409" stop-color="#806E91"/><stop offset="1" stop-color="#806E91" stop-opacity="0"/></linearGradient><linearGradient id="c" x1="6.471" x2="26.569" y1="28.42" y2="28.42" gradientUnits="userSpaceOnUse"><stop stop-color="#D6C0EA"/><stop offset="1" stop-color="#DCCCED"/></linearGradient><linearGradient id="d" x1="16" x2="16" y1="26.743" y2="28.162" gradientUnits="userSpaceOnUse"><stop stop-color="#9F8CB4"/><stop offset="1" stop-color="#9F8CB4" stop-opacity="0"/></linearGradient><linearGradient id="e" x1="4.955" x2="7.75" y1="16.742" y2="16.742" gradientUnits="userSpaceOnUse"><stop stop-color="#4E4459"/><stop offset="1" stop-color="#453C4E"/></linearGradient><linearGradient id="g" x1="6.181" x2="26.75" y1="28.969" y2="28.936" gradientUnits="userSpaceOnUse"><stop stop-color="#512F71"/><stop offset="1" stop-color="#4F2E6D"/></linearGradient><radialGradient id="f" cx="0" cy="0" r="1" gradientTransform="matrix(0 -6.6454 1.17096 0 5.149 26.678)" gradientUnits="userSpaceOnUse"><stop stop-color="#51475C"/><stop offset="1" stop-color="#51475C" stop-opacity="0"/></radialGradient></defs></svg>
